X:241231
T:241231
M:6/8
K:Cmin
AFDCFG|AFDBcd|edcBGF|EFGFEC|BAFCFG|AFDABc|CFGcBA|GFEF3:|f2de2f|gfebed|cdeg2a|b2egfe|f2fe2B|AGAB2B|cdedBd|cBEFGA:|

